symbols/web/umbrella/materialsymbolsrounded/umbrella_wght600_24px.svg

<svg xmlns="http://www.w3.org/2000/svg" height="24" width="24"><path d="M12 23.375q-.6 0-1.062-.3-.463-.3-.688-.925L5.05 6.675q-.125-.4.163-.688.287-.287.662-.162l3.15.9 1.65-1.125V2.975q0-1.275.863-2.125Q12.4 0 13.7 0q1.175 0 1.913.575.737.575.937 1.475.175.75-.225 1.262-.4.513-1.125.513-.45 0-.737-.213-.288-.212-.363-.662-.05-.175-.15-.263-.1-.087-.25-.087t-.262.112q-.113.113-.113.263V5.6l1.65 1.125 3.15-.9q.375-.125.663.162.287.288.162.688l-5.2 15.475q-.225.6-.688.912-.462.313-1.062.313Zm1.325-8.325 1.95-5.85-.875.175-1.075-.625Zm-2.65 0V8.775L9.6 9.4l-.875-.175Z"/></svg>

<svg xmlns="http://www.w3.org/2000/svg" height="24" width="24"><path d="M12 23.375Q11.4 23.375 10.938 23.075Q10.475 22.775 10.25 22.15L5.05 6.675Q4.925 6.275 5.213 5.987Q5.5 5.7 5.875 5.825L9.025 6.725L10.675 5.6V2.975Q10.675 1.7 11.538 0.85Q12.4 0 13.7 0Q14.875 0 15.613 0.575Q16.35 1.15 16.55 2.05Q16.725 2.8 16.325 3.312Q15.925 3.825 15.2 3.825Q14.75 3.825 14.463 3.612Q14.175 3.4 14.1 2.95Q14.05 2.775 13.95 2.687Q13.85 2.6 13.7 2.6Q13.55 2.6 13.438 2.712Q13.325 2.825 13.325 2.975V5.6L14.975 6.725L18.125 5.825Q18.5 5.7 18.788 5.987Q19.075 6.275 18.95 6.675L13.75 22.15Q13.525 22.75 13.062 23.062Q12.6 23.375 12 23.375ZM13.325 15.05 15.275 9.2 14.4 9.375 13.325 8.75ZM10.675 15.05V8.775L9.6 9.4L8.725 9.225Z"/></svg>
